assets-homepage/img/wordmark_color_black.svg

<?xml version="1.0" encoding="utf-8"?>
<svg width="362px" height="79px" viewBox="0 0 362 79" version="1.1" xmlns:xlink="http://www.w3.org/1999/xlink" xmlns="http://www.w3.org/2000/svg">
  <defs>
    <linearGradient gradientUnits="objectBoundingBox" x1="0.5" y1="0" x2="0.5" y2="1" id="gradient_1">
      <stop offset="0%" stop-color="#FF8C49" />
      <stop offset="100%" stop-color="#FF5E00" />
    </linearGradient>
    <path d="M362 0L362 0L362 79L0 79L0 0L362 0Z" id="path_1" />
    <clipPath id="clip_1">
      <use xlink:href="#path_1" clip-rule="evenodd" fill-rule="evenodd" />
    </clipPath>
  </defs>
  <g id="oiled up cockette">
    <path d="M362 0L362 0L362 79L0 79L0 0L362 0Z" id="oiled-up-cockette" fill="none" stroke="none" />
    <path d="M26.5123 79C21.0116 79 16.2791 77.7777 12.3146 75.3331C8.35015 72.8885 5.30247 69.5044 3.17157 65.1806C1.05719 60.8402 0 55.8679 0 50.2636C0 44.5762 1.07371 39.579 3.22113 35.2718C5.38506 30.9481 8.441 27.5639 12.3889 25.1193C16.3534 22.6747 21.0364 21.4525 26.438 21.4525C30.9641 21.4525 34.9533 22.284 38.4057 23.9469C41.8746 25.5933 44.6415 27.9215 46.7063 30.9315C48.7712 33.9248 49.944 37.442 50.2248 41.4831L37.7615 41.4831C37.2494 38.7891 36.0518 36.544 34.1687 34.748C32.2856 32.9353 29.7665 32.029 26.6115 32.029C22.614 32.029 19.3763 33.6255 16.8985 36.8184C14.4373 39.9947 13.2066 44.4016 13.2066 50.0391C13.2066 55.7265 14.429 60.1917 16.8737 63.4345C19.3185 66.6773 22.5644 68.2987 26.6115 68.2987C29.4857 68.2987 31.9222 67.4755 33.9209 65.8292C35.9197 64.1828 37.1999 61.8546 37.7615 58.8446L50.2248 58.8446C49.9109 62.7859 48.7546 66.2699 46.7559 69.2965C44.7737 72.3231 42.0646 74.7012 38.6287 76.4307C35.1929 78.1436 31.1541 79 26.5123 79L26.5123 79ZM66.352 3.59198L66.352 74.9044Q66.352 75.0516 66.3376 75.1982Q66.3231 75.3448 66.2944 75.4892Q66.2657 75.6337 66.2229 75.7746Q66.1802 75.9156 66.1238 76.0516Q66.0674 76.1877 65.998 76.3176Q65.9286 76.4475 65.8467 76.57Q65.7649 76.6924 65.6715 76.8063Q65.5781 76.9202 65.4739 77.0243Q65.3698 77.1284 65.2559 77.2219Q65.1421 77.3153 65.0196 77.3971Q64.8971 77.479 64.7672 77.5484Q64.6373 77.6178 64.5013 77.6742Q64.3652 77.7305 64.2243 77.7733Q64.0833 77.816 63.9389 77.8448Q63.7944 77.8735 63.6478 77.888Q63.5013 77.9024 63.354 77.9024L56.3169 77.9024Q56.1696 77.9024 56.023 77.888Q55.8765 77.8735 55.732 77.8448Q55.5875 77.816 55.4466 77.7733Q55.3057 77.7305 55.1696 77.6742Q55.0335 77.6178 54.9036 77.5484Q54.7737 77.479 54.6513 77.3971Q54.5288 77.3153 54.415 77.2219Q54.3011 77.1284 54.197 77.0243Q54.0928 76.9202 53.9994 76.8063Q53.9059 76.6924 53.8241 76.57Q53.7423 76.4475 53.6729 76.3176Q53.6034 76.1877 53.5471 76.0516Q53.4907 75.9156 53.4479 75.7746Q53.4052 75.6337 53.3764 75.4892Q53.3477 75.3448 53.3333 75.1982Q53.3189 75.0516 53.3188 74.9044L53.3188 6.59003Q53.3189 6.44274 53.3333 6.29617Q53.3477 6.14959 53.3765 6.00514Q53.4052 5.86068 53.4479 5.71974Q53.4907 5.5788 53.5471 5.44272Q53.6034 5.30665 53.6729 5.17676Q53.7423 5.04686 53.8241 4.9244Q53.9059 4.80194 53.9994 4.68809Q54.0928 4.57423 54.197 4.47009Q54.3011 4.36594 54.415 4.2725Q54.5288 4.17907 54.6513 4.09724Q54.7737 4.01541 54.9036 3.94599Q55.0335 3.87656 55.1696 3.82019Q55.3057 3.76383 55.4466 3.72107Q55.5875 3.67832 55.732 3.64959Q55.8765 3.62085 56.023 3.60642Q56.1696 3.59198 56.3169 3.59198L66.352 3.59198L66.352 3.59198ZM72.1099 77.9025L72.1099 27.1759Q72.1099 27.0532 72.1159 26.9306Q72.1219 26.808 72.1339 26.6858Q72.146 26.5637 72.164 26.4423Q72.182 26.3208 72.2059 26.2005Q72.2299 26.0801 72.2597 25.961Q72.2895 25.8419 72.3252 25.7245Q72.3608 25.607 72.4021 25.4915Q72.4435 25.3759 72.4905 25.2625Q72.5374 25.1491 72.5899 25.0381Q72.6424 24.9272 72.7003 24.8189Q72.7581 24.7107 72.8212 24.6054Q72.8843 24.5001 72.9525 24.3981Q73.0207 24.296 73.0938 24.1974Q73.1669 24.0988 73.2448 24.0039Q73.3227 23.9091 73.4051 23.8181Q73.4875 23.7272 73.5743 23.6404Q73.6611 23.5536 73.7521 23.4711Q73.843 23.3887 73.9379 23.3109Q74.0328 23.233 74.1314 23.1599Q74.2299 23.0867 74.332 23.0186Q74.4341 22.9504 74.5394 22.8873Q74.6446 22.8242 74.7529 22.7663Q74.8611 22.7084 74.9721 22.656Q75.083 22.6035 75.1964 22.5565Q75.3098 22.5095 75.4254 22.4682Q75.541 22.4268 75.6584 22.3912Q75.7759 22.3556 75.895 22.3257Q76.014 22.2959 76.1344 22.272Q76.2548 22.248 76.3762 22.23Q76.4976 22.212 76.6198 22.2Q76.7419 22.188 76.8645 22.1819Q76.9871 22.1759 77.1099 22.1759L80.143 22.1759Q80.2658 22.1759 80.3884 22.1819Q80.511 22.188 80.6331 22.2Q80.7553 22.212 80.8767 22.23Q80.9981 22.248 81.1185 22.272Q81.2389 22.2959 81.3579 22.3257Q81.477 22.3556 81.5944 22.3912Q81.7119 22.4268 81.8275 22.4682Q81.943 22.5095 82.0564 22.5565Q82.1698 22.6035 82.2808 22.656Q82.3918 22.7084 82.5 22.7663Q82.6083 22.8242 82.7135 22.8873Q82.8188 22.9504 82.9209 23.0186Q83.0229 23.0867 83.1215 23.1599Q83.2201 23.233 83.315 23.3109Q83.4099 23.3887 83.5008 23.4711Q83.5918 23.5536 83.6786 23.6404Q83.7653 23.7272 83.8478 23.8181Q83.9302 23.9091 84.0081 24.0039Q84.0859 24.0988 84.1591 24.1974Q84.2322 24.296 84.3004 24.3981Q84.3686 24.5001 84.4317 24.6054Q84.4948 24.7107 84.5526 24.8189Q84.6105 24.9272 84.663 25.0381Q84.7154 25.1491 84.7624 25.2625Q84.8094 25.3759 84.8507 25.4915Q84.8921 25.607 84.9277 25.7245Q84.9634 25.8419 84.9932 25.961Q85.023 26.0801 85.047 26.2005Q85.0709 26.3208 85.0889 26.4423Q85.1069 26.5637 85.119 26.6858Q85.131 26.808 85.137 26.9306Q85.143 27.0532 85.143 27.1759L85.143 72.9025Q85.143 73.0252 85.137 73.1478Q85.131 73.2704 85.119 73.3925Q85.1069 73.5147 85.0889 73.6361Q85.0709 73.7575 85.047 73.8779Q85.023 73.9983 84.9932 74.1174Q84.9634 74.2364 84.9277 74.3539Q84.8921 74.4713 84.8507 74.5869Q84.8094 74.7025 84.7624 74.8159Q84.7154 74.9293 84.663 75.0402Q84.6105 75.1512 84.5526 75.2595Q84.4948 75.3677 84.4317 75.473Q84.3686 75.5783 84.3004 75.6803Q84.2322 75.7824 84.1591 75.881Q84.0859 75.9796 84.0081 76.0744Q83.9302 76.1693 83.8478 76.2603Q83.7653 76.3512 83.6786 76.438Q83.5918 76.5248 83.5008 76.6072Q83.4099 76.6897 83.315 76.7675Q83.2201 76.8454 83.1215 76.9185Q83.0229 76.9916 82.9209 77.0598Q82.8188 77.128 82.7135 77.1911Q82.6083 77.2542 82.5 77.3121Q82.3918 77.3699 82.2808 77.4224Q82.1698 77.4749 82.0564 77.5219Q81.943 77.5688 81.8275 77.6102Q81.7119 77.6515 81.5944 77.6872Q81.477 77.7228 81.3579 77.7526Q81.2389 77.7824 81.1185 77.8064Q80.9981 77.8303 80.8767 77.8483Q80.7553 77.8664 80.6331 77.8784Q80.511 77.8904 80.3884 77.8964Q80.2658 77.9025 80.143 77.9025L72.1099 77.9025L72.1099 77.9025ZM78.651 14.2684C76.5697 14.2684 74.7857 13.5699 73.299 12.173C71.8288 10.7761 71.0938 9.10483 71.0938 7.15914C71.0938 5.16356 71.8288 3.47564 73.299 2.09536C74.7857 0.698455 76.5697 0 78.651 0C80.7158 0 82.4833 0.698455 83.9535 2.09536C85.4401 3.47564 86.1835 5.16356 86.1835 7.15914C86.1835 9.10483 85.4401 10.7761 83.9535 12.173C82.4833 13.5699 80.7158 14.2684 78.651 14.2684L78.651 14.2684ZM115.034 79C109.533 79 104.801 77.7777 100.836 75.3331C96.8716 72.8885 93.824 69.5044 91.6931 65.1806C89.5787 60.8402 88.5215 55.8679 88.5215 50.2637C88.5215 44.5763 89.5952 39.579 91.7426 35.2719C93.9066 30.9481 96.9625 27.5639 100.91 25.1193C104.875 22.6747 109.558 21.4525 114.96 21.4525C119.486 21.4525 123.475 22.284 126.927 23.9469C130.396 25.5933 133.163 27.9215 135.228 30.9315C137.293 33.9248 138.466 37.442 138.746 41.4831L126.283 41.4831C125.771 38.7891 124.573 36.544 122.69 34.748C120.807 32.9354 118.288 32.029 115.133 32.029C111.135 32.029 107.898 33.6255 105.42 36.8184C102.959 39.9947 101.728 44.4016 101.728 50.0392C101.728 55.7265 102.95 60.1917 105.395 63.4345C107.84 66.6773 111.086 68.2987 115.133 68.2987C118.007 68.2987 120.444 67.4755 122.442 65.8292C124.441 64.1828 125.721 61.8547 126.283 58.8447L138.746 58.8447C138.432 62.7859 137.276 66.2699 135.277 69.2965C133.295 72.3231 130.586 74.7012 127.15 76.4307C123.714 78.1436 119.676 79 115.034 79L115.034 79ZM219.115 79C213.564 79 208.774 77.8276 204.743 75.4828C200.713 73.1214 197.616 69.8037 195.452 65.5298C193.304 61.256 192.23 56.2005 192.23 50.3634C192.23 44.6261 193.304 39.5873 195.452 35.2469C197.616 30.9065 200.663 27.5223 204.595 25.0944C208.526 22.6664 213.135 21.4525 218.421 21.4525C222.963 21.4525 227.151 22.4419 230.983 24.4209C234.832 26.3832 237.913 29.4431 240.225 33.6005C242.554 37.7414 243.719 43.0712 243.719 49.5901L243.719 53.6312L205.165 53.6312C205.231 58.3873 206.544 62.0958 209.104 64.7566C211.665 67.4173 215.059 68.7477 219.288 68.7477C222.096 68.7477 224.524 68.1407 226.573 66.9267C228.637 65.7128 230.116 63.9251 231.008 61.5636L243.174 62.9605C242.018 67.7998 239.333 71.6829 235.121 74.6097C230.909 77.5366 225.573 79 219.115 79L219.115 79ZM205.188 44.7757L231.205 44.7757C231.189 40.9841 230.016 37.8577 227.687 35.3965C225.374 32.9187 222.343 31.6797 218.593 31.6797C214.711 31.6797 211.556 32.9769 209.128 35.5711C206.7 38.1487 205.387 41.2169 205.188 44.7757L205.188 44.7757ZM274.725 22.1758L274.725 32.3283C274.725 32.3283 263.798 32.3283 263.798 32.3283C263.798 32.3283 263.798 61.1395 263.798 61.1395C263.798 63.7837 264.377 65.5215 265.533 66.353C266.689 67.1845 268.085 67.6002 269.72 67.6002C270.53 67.6002 271.273 67.542 271.95 67.4256C272.644 67.2926 273.173 67.1845 273.536 67.1013C273.536 67.1013 275.741 77.3536 275.741 77.3536C275.048 77.6031 274.056 77.8691 272.768 78.1518C271.48 78.4512 269.91 78.6258 268.06 78.6757C263.154 78.8088 259.033 77.5947 255.696 75.0338C252.376 72.4728 250.732 68.5648 250.765 63.3097C250.765 63.3097 250.765 32.3283 250.765 32.3283L242.911 32.3283L242.911 22.1758L250.765 22.1758L250.765 12.8284Q250.765 12.632 250.785 12.4366Q250.804 12.2411 250.842 12.0484Q250.88 11.8558 250.937 11.6679Q250.994 11.4799 251.07 11.2984Q251.145 11.117 251.237 10.9438Q251.33 10.7705 251.439 10.6072Q251.548 10.4439 251.673 10.2921Q251.797 10.1403 251.936 10.0014Q252.075 9.8625 252.227 9.7379Q252.379 9.6133 252.542 9.50418Q252.705 9.39505 252.879 9.30247Q253.052 9.20988 253.233 9.13472Q253.415 9.05955 253.603 9.00254Q253.791 8.94552 253.983 8.9072Q254.176 8.86889 254.371 8.84964Q254.567 8.83038 254.763 8.83038L263.798 8.83038L263.798 22.1758L274.725 22.1758L274.725 22.1758ZM310.192 22.1758L310.192 32.3283C310.192 32.3283 299.265 32.3283 299.265 32.3283C299.265 32.3283 299.265 61.1395 299.265 61.1395C299.265 63.7837 299.843 65.5215 301 66.353C302.156 67.1845 303.552 67.6002 305.187 67.6002C305.996 67.6002 306.74 67.542 307.417 67.4256C308.111 67.2926 308.639 67.1845 309.003 67.1013C309.003 67.1013 311.208 77.3536 311.208 77.3536C310.514 77.6031 309.523 77.8691 308.235 78.1518C306.946 78.4512 305.377 78.6258 303.527 78.6757C298.621 78.8088 294.5 77.5947 291.163 75.0338C287.843 72.4728 286.199 68.5648 286.232 63.3097C286.232 63.3097 286.232 32.3283 286.232 32.3283L278.377 32.3283L278.377 22.1758L286.232 22.1758L286.232 12.8284Q286.232 12.632 286.251 12.4366Q286.271 12.2411 286.309 12.0484Q286.347 11.8558 286.404 11.6679Q286.461 11.4799 286.536 11.2984Q286.612 11.117 286.704 10.9438Q286.797 10.7705 286.906 10.6072Q287.015 10.4439 287.14 10.2921Q287.264 10.1403 287.403 10.0014Q287.542 9.8625 287.694 9.7379Q287.846 9.6133 288.009 9.50418Q288.172 9.39505 288.345 9.30247Q288.519 9.20988 288.7 9.13472Q288.882 9.05955 289.069 9.00254Q289.257 8.94552 289.45 8.9072Q289.643 8.86889 289.838 8.84964Q290.034 8.83038 290.23 8.83038L299.265 8.83038L299.265 22.1758L310.192 22.1758L310.192 22.1758ZM337.395 79C331.845 79 327.054 77.8276 323.024 75.4828C318.993 73.1214 315.896 69.8037 313.732 65.5298C311.584 61.256 310.511 56.2005 310.511 50.3634C310.511 44.6261 311.584 39.5873 313.732 35.2469C315.896 30.9065 318.944 27.5223 322.875 25.0944C326.806 22.6664 331.415 21.4525 336.701 21.4525C341.244 21.4525 345.431 22.4419 349.263 24.4209C353.112 26.3832 356.193 29.4431 358.505 33.6005C360.835 37.7414 361.999 43.0712 361.999 49.5901L361.999 53.6312L323.445 53.6312C323.511 58.3873 324.824 62.0958 327.385 64.7566C329.945 67.4173 333.339 68.7477 337.568 68.7477C340.376 68.7477 342.805 68.1407 344.853 66.9267C346.918 65.7128 348.396 63.9251 349.288 61.5636L361.454 62.9605C360.298 67.7998 357.613 71.6829 353.401 74.6097C349.189 77.5366 343.853 79 337.395 79L337.395 79ZM323.471 44.7757L349.488 44.7757C349.471 40.9841 348.298 37.8577 345.969 35.3965C343.656 32.9187 340.625 31.6797 336.876 31.6797C332.994 31.6797 329.839 32.9769 327.41 35.5711C324.982 38.1487 323.669 41.2169 323.471 44.7757L323.471 44.7757Z" id="Shape" fill="#000000" fill-rule="evenodd" stroke="none" clip-path="url(#clip_1)" />
    <path d="M156.822 20.9927L143 7.67627L143 3.99805Q143 3.80164 143.019 3.60617Q143.038 3.4107 143.076 3.21807Q143.115 3.02543 143.172 2.83748Q143.229 2.64952 143.304 2.46806Q143.379 2.2866 143.472 2.11338Q143.564 1.94016 143.673 1.77685Q143.782 1.61354 143.907 1.46171Q144.032 1.30988 144.171 1.171Q144.309 1.03212 144.461 0.907515Q144.613 0.782913 144.776 0.673792Q144.94 0.564672 145.113 0.472084Q145.286 0.379497 145.468 0.304333Q145.649 0.22917 145.837 0.172155Q146.025 0.115139 146.218 0.0768213Q146.41 0.0385034 146.606 0.0192517Q146.801 0 146.998 0L152.773 0Q152.969 0 153.164 0.0191783Q153.359 0.0383565 153.552 0.076529Q153.744 0.114702 153.931 0.171502Q154.119 0.228303 154.3 0.303186Q154.481 0.37807 154.654 0.470318Q154.827 0.562567 154.99 0.671295Q155.154 0.780023 155.305 0.904187Q155.457 1.02835 155.596 1.16676Q155.735 1.30517 155.859 1.4565Q155.984 1.60783 156.093 1.77062Q156.202 1.93341 156.295 2.10611Q156.388 2.27881 156.463 2.45975Q156.539 2.64069 156.596 2.82815Q156.653 3.0156 156.692 3.20777Q156.731 3.39994 156.751 3.59498Q156.77 3.79001 156.771 3.98605L156.822 20.9927ZM184.139 51.2359L144.039 11.8046L143.894 11.8046L143.894 68.7221L157.274 56.4983L163.084 70.5081C164.137 73.0469 167 74.231 169.48 73.1534C171.96 72.0758 173.117 69.1449 172.064 66.6063L166.316 52.7458L184.139 51.2359ZM176.902 40.3374L168.185 31.9398L177.853 21.0944Q177.993 20.937 178.149 20.7953Q178.305 20.6536 178.476 20.5291Q178.646 20.4046 178.828 20.2986Q179.01 20.1927 179.202 20.1064Q179.395 20.0202 179.595 19.9547Q179.795 19.8892 180.001 19.8451Q180.208 19.8011 180.417 19.7789Q180.627 19.7567 180.838 19.7567L187.18 19.7567Q187.442 19.7567 187.701 19.7943Q187.96 19.8318 188.211 19.9061Q188.462 19.9804 188.7 20.0899Q188.938 20.1994 189.158 20.3418Q189.378 20.4843 189.575 20.6568Q189.772 20.8293 189.942 21.0282Q190.113 21.2272 190.253 21.4485Q190.393 21.6698 190.5 21.9089Q190.607 22.148 190.678 22.3999Q190.75 22.6519 190.784 22.9115Q190.819 23.1711 190.816 23.433Q190.813 23.6949 190.773 23.9536Q190.733 24.2124 190.656 24.4627Q190.579 24.7131 190.467 24.9498Q190.355 25.1865 190.21 25.4047Q190.065 25.6229 189.89 25.8181L176.902 40.3374ZM169.718 55.1538L178.975 54.4052L192.106 72.668Q192.267 72.8909 192.395 73.1336Q192.523 73.3764 192.617 73.6344Q192.711 73.8924 192.769 74.1608Q192.827 74.4292 192.847 74.7031Q192.868 74.9769 192.85 75.2509Q192.833 75.5249 192.779 75.794Q192.725 76.0632 192.634 76.3223Q192.543 76.5815 192.418 76.8258Q192.293 77.0702 192.135 77.2951Q191.978 77.52 191.791 77.7213Q191.604 77.9225 191.392 78.0964Q191.179 78.2702 190.945 78.4134Q190.711 78.5566 190.459 78.6664Q190.207 78.7762 189.943 78.8505Q189.679 78.9249 189.407 78.9624Q189.135 79 188.86 79L180.033 79Q180.023 79 180.016 78.9913L174.976 71.9172C175.557 70.3608 175.695 68.7021 175.14 67.3907L169.718 55.1538ZM143 79L143 72.3628L156.195 60.7561L156.89 62.3893L156.89 75.0019C156.89 77.21 155.1 79 152.892 79L143 79Z" id="Shape" fill="url(#gradient_1)" fill-rule="evenodd" stroke="none" clip-path="url(#clip_1)" />
  </g>
</svg>

<svg width="362" height="79" viewBox="0 0 362 79" xmlns:xlink="http://www.w3.org/1999/xlink" xmlns="http://www.w3.org/2000/svg"><defs><linearGradient gradientUnits="objectBoundingBox" x1=".5" y1="0" x2=".5" y2="1" id="c"><stop offset="0%" stop-color="#FF8C49"/><stop offset="100%" stop-color="#FF5E00"/></linearGradient><clipPath id="b"><use xlink:href="#a" clip-rule="evenodd" fill-rule="evenodd"/></clipPath><path d="M362 0v79H0V0z" id="a"/></defs><path d="M362 0v79H0V0z" fill="none"/><path d="M26.512 79q-8.25 0-14.197-3.667-5.948-3.667-9.143-10.152Q0 58.67 0 50.264q0-8.532 3.221-14.992 3.246-6.486 9.168-10.153 5.946-3.666 14.049-3.666 6.789 0 11.968 2.494 5.204 2.47 8.3 6.985 3.097 4.49 3.519 10.551H37.76q-.769-4.041-3.592-6.735-2.825-2.72-7.557-2.719-5.997 0-9.713 4.79-3.692 4.764-3.692 13.22 0 8.532 3.667 13.395Q20.54 68.3 26.612 68.3q4.31 0 7.309-2.47 2.998-2.469 3.84-6.984h12.464q-.47 5.911-3.47 10.451-2.972 4.54-8.126 7.135Q33.475 79 26.512 79m39.84-75.408v71.312q0 .148-.014.294-.015.147-.044.291-.028.145-.071.286t-.1.277-.125.266-.151.252-.175.236-.198.218-.218.198-.236.175q-.123.082-.253.151-.13.07-.266.126t-.277.1q-.14.042-.285.07-.145.03-.291.044-.147.014-.294.014h-7.037q-.147 0-.294-.014t-.291-.043-.285-.072-.277-.099-.266-.126-.253-.15q-.122-.083-.236-.176-.114-.094-.218-.198t-.198-.218-.175-.236-.151-.252-.126-.266-.1-.277-.07-.286q-.03-.144-.044-.29-.014-.147-.014-.295V6.59q0-.147.014-.294.015-.146.044-.29.028-.145.07-.286.044-.141.1-.277t.126-.266.151-.253q.082-.122.175-.236.094-.114.198-.218t.218-.197.236-.176q.123-.082.253-.151.13-.07.266-.126t.277-.099.285-.071q.145-.03.291-.044.147-.014.294-.014zm5.758 74.31V27.177q0-.123.006-.245.006-.123.018-.245t.03-.244.042-.241.054-.24.065-.236.077-.234.088-.229.1-.224q.052-.11.11-.22.058-.107.121-.213.063-.105.132-.207.068-.102.14-.2.074-.1.152-.194.078-.095.16-.186.082-.09.17-.178.086-.086.177-.169.091-.082.186-.16t.193-.151.201-.141.207-.132.214-.12.22-.111q.11-.052.223-.1.114-.047.23-.088.115-.041.232-.077t.237-.065.24-.054.241-.042q.122-.018.244-.03t.245-.018q.122-.006.245-.006h3.033q.123 0 .245.006.123.006.245.018t.244.03.242.042.239.054.236.065.234.077q.115.041.228.088.114.047.225.1.11.052.219.11.108.058.213.121.106.063.208.132.102.068.2.14.1.074.194.152.095.078.186.16.09.083.178.17.086.086.169.177.082.091.16.186t.151.193.141.201.132.207.12.214.111.22.1.223q.046.114.088.23.041.115.077.232t.065.237q.03.12.054.24t.042.241.03.244.018.245.006.245v45.727q0 .122-.006.245-.006.122-.018.245-.012.122-.03.243t-.042.242-.054.24-.065.236-.077.233-.089.229-.099.224-.11.22-.121.213-.132.207-.14.201q-.074.099-.152.193-.078.095-.16.186-.083.091-.17.178-.086.087-.177.17-.091.082-.186.16-.095.077-.194.15-.098.074-.2.142t-.208.131-.213.121-.22.11-.224.1-.228.088-.234.077-.236.066q-.12.03-.24.053-.12.024-.241.042-.122.018-.244.03t-.245.018q-.122.007-.245.007zm6.541-63.634q-3.121 0-5.352-2.095-2.205-2.095-2.205-5.014 0-2.993 2.205-5.064Q75.529 0 78.651 0q3.097 0 5.303 2.095 2.23 2.07 2.23 5.064 0 2.919-2.23 5.014-2.205 2.095-5.303 2.095M115.034 79q-8.251 0-14.198-3.667-5.946-3.667-9.143-10.152-3.171-6.51-3.171-14.917 0-8.532 3.22-14.992 3.247-6.486 9.168-10.153 5.947-3.666 14.05-3.666 6.789 0 11.967 2.494 5.204 2.47 8.301 6.985 3.098 4.49 3.518 10.551h-12.463q-.768-4.041-3.593-6.735-2.825-2.72-7.557-2.719-5.997 0-9.713 4.79-3.692 4.764-3.692 13.22 0 8.532 3.667 13.395 3.668 4.865 9.738 4.865 4.311 0 7.309-2.47 2.998-2.469 3.841-6.984h12.463q-.47 5.911-3.469 10.451-2.973 4.54-8.127 7.135Q121.996 79 115.034 79m104.081 0q-8.326 0-14.372-3.517-6.045-3.543-9.291-9.953-3.222-6.411-3.222-15.167 0-8.606 3.222-15.116 3.245-6.51 9.143-10.153 5.897-3.642 13.826-3.642 6.814 0 12.562 2.969 5.774 2.943 9.242 9.18 3.494 6.21 3.494 15.99v4.04h-38.554q.099 7.134 3.939 11.126 3.841 3.99 10.184 3.99 4.212 0 7.285-1.82 3.097-1.821 4.435-5.363l12.166 1.397q-1.734 7.259-8.053 11.649Q228.803 79 219.115 79m-13.927-34.224h26.017q-.024-5.687-3.518-9.38-3.47-3.716-9.094-3.716-5.823 0-9.465 3.891-3.642 3.867-3.94 9.205m69.537-22.6v10.152h-10.927V61.14q0 3.968 1.735 5.214 1.734 1.247 4.187 1.247 1.215 0 2.23-.174a49 49 0 0 0 1.586-.325l2.205 10.253q-1.04.374-2.973.798-1.933.45-4.708.524-7.359.2-12.364-3.642-4.98-3.842-4.931-11.724V32.328h-7.854V22.176h7.854v-9.348q0-.196.02-.391.019-.196.057-.389.038-.192.095-.38t.133-.37q.075-.181.167-.354.093-.174.202-.337t.234-.315q.124-.152.263-.29.139-.14.291-.264.152-.125.315-.234t.337-.202.354-.167q.182-.075.37-.132t.38-.096q.193-.038.388-.057.196-.02.392-.02h9.035v13.346zm35.467 0v10.152h-10.927V61.14q0 3.968 1.735 5.214 1.734 1.247 4.187 1.247 1.214 0 2.23-.174a49 49 0 0 0 1.586-.325l2.205 10.253q-1.041.374-2.973.798-1.933.45-4.708.524-7.359.2-12.364-3.642-4.98-3.842-4.931-11.724V32.328h-7.855V22.176h7.855v-9.348q0-.196.019-.391.02-.196.058-.389.038-.192.095-.38t.132-.37.168-.354.202-.337.234-.315.263-.29q.139-.14.291-.264.152-.125.315-.234t.336-.202.355-.167.369-.132.381-.096.388-.057q.196-.02.392-.02h9.035v13.346zM337.395 79q-8.326 0-14.371-3.517-6.046-3.543-9.292-9.953-3.221-6.411-3.221-15.167 0-8.606 3.221-15.116 3.246-6.51 9.143-10.153 5.897-3.642 13.826-3.642 6.814 0 12.562 2.969 5.774 2.943 9.242 9.18 3.495 6.21 3.494 15.99v4.04h-38.554q.099 7.134 3.94 11.126 3.84 3.99 10.183 3.99 4.212 0 7.285-1.82 3.097-1.821 4.435-5.363l12.166 1.397q-1.735 7.259-8.053 11.649T337.395 79m-13.924-34.224h26.017q-.026-5.687-3.519-9.38-3.47-3.716-9.093-3.716-5.823 0-9.466 3.891-3.642 3.867-3.939 9.205" fill-rule="evenodd" clip-path="url(#b)"/><path d="M156.822 20.993 143 7.676V3.998q0-.196.019-.392.019-.195.057-.388t.096-.38q.057-.188.132-.37.075-.181.168-.355.092-.173.201-.336t.234-.315.264-.291.29-.263.315-.234.337-.202.355-.168.369-.132.381-.095q.192-.038.388-.058.195-.019.392-.019h5.775q.196 0 .391.02.195.018.388.057.192.038.379.095.188.056.369.131t.354.167q.173.093.336.201t.315.233.291.263.263.29q.125.15.234.314.109.162.202.335t.168.354.133.368q.057.188.096.38t.059.387.02.391zm27.317 30.243-40.1-39.431h-.145v56.917l13.38-12.224 5.81 14.01c1.053 2.539 3.916 3.723 6.396 2.645s3.637-4.008 2.584-6.547l-5.748-13.86zm-7.237-10.899-8.717-8.397 9.668-10.846q.14-.157.296-.299.156-.141.327-.266.17-.124.352-.23t.374-.193q.193-.086.393-.151.2-.066.406-.11t.416-.066.421-.022h6.342q.262 0 .521.037.259.038.51.112t.489.184.458.252.417.315q.197.172.367.371.171.2.311.42.14.222.247.46.107.24.178.492.072.252.106.512.035.26.032.521-.003.262-.043.52-.04.26-.117.51t-.189.487-.257.455-.32.413zm-7.184 14.817 9.257-.749 13.131 18.263q.161.223.289.466.128.242.222.5t.152.527.078.542q.021.274.003.548-.017.274-.071.543-.054.27-.145.528-.091.26-.216.504t-.283.47q-.157.224-.344.425t-.399.375-.447.317-.486.253-.516.184-.536.112-.547.038h-8.827q-.01 0-.017-.009l-5.04-7.074c.581-1.556.719-3.215.164-4.526zM143 79v-6.637l13.195-11.607.695 1.633v12.613A4 4 0 0 1 152.892 79z" fill="url(#c)" fill-rule="evenodd" clip-path="url(#b)"/></svg>
